X: 2060
T: La Monmouth
%R: _
B: Henry Playford "Apollo's Banquet", London 1687 (5th Edition)
F: https://archive.org/details/apollosbanquetco01rugg
Z: 2017 John Chambers <jc:trillian.mit.edu>
M: 3/2
L: 1/4
K: Bb
% - - - - - - - - - -
d |\
ef2 B2b | ag2 f2b |\
def ged/>c/ | c2B B2 :: f |\
bag def | fg_a g2c' |
ga2 =eca | g2f f2b |\
fg2 d2e | fB2 A2f |\
dgf gab | b2a b2 |]
% - - - - - - - - - -

%%sep 1 1 500
%%sep 1 1 500

